app/img/svg/apple-logo.svg

<svg xmlns="http://www.w3.org/2000/svg" width="93" height="114"><defs><clipPath id="cp1"><path d="M0 0h92v114H0z"/></clipPath></defs><style></style><g id="Page 1" clip-path="url(#cp1)"><path id="Path 1" fill-rule="evenodd" d="M62.9 18.62c3.97-4.8 6.64-11.48 5.91-18.12-5.71.23-12.62 3.8-16.72 8.6-3.67 4.25-6.89 11.04-6.02 17.56 6.37.49 12.87-3.24 16.83-8.04zM89.45 39.2C82.78 29.43 72.4 28.1 68.7 27.94c-8.85-.89-17.25 5.2-21.74 5.2-4.47 0-11.39-5.07-18.73-4.93-9.63.14-18.52 5.6-23.48 14.23-10.01 17.36-2.56 43.09 7.19 57.18 4.77 6.89 10.46 14.66 17.92 14.37 7.19-.28 9.91-4.64 18.6-4.64 8.69 0 11.13 4.64 18.73 4.5 7.73-.14 12.64-7.03 17.37-13.94 5.48-8 7.73-15.74 7.86-16.15-.16-.07-15.07-5.78-15.23-22.96-.13-14.36 11.73-21.27 12.26-21.6z" fill="#fff"/></g></svg>

<svg xmlns="http://www.w3.org/2000/svg" viewBox="0 0 93 114" width="93" height="114">
	<defs>
		<clipPath clipPathUnits="userSpaceOnUse" id="cp1">
			<path d="M0 0L92 0L92 114L0 114Z" />
		</clipPath>
	</defs>
	<style>
		tspan { white-space:pre }
		.shp0 { fill: #ffffff } 
	</style>
	<g id="Page 1" clip-path="url(#cp1)">
		<path id="Path 1" fill-rule="evenodd" class="shp0" d="M62.9 18.62C66.87 13.82 69.54 7.14 68.81 0.5C63.1 0.73 56.19 4.3 52.09 9.1C48.42 13.35 45.2 20.14 46.07 26.66C52.44 27.15 58.94 23.42 62.9 18.62ZM89.45 39.2C82.78 29.43 72.4 28.1 68.7 27.94C59.85 27.05 51.45 33.14 46.96 33.14C42.49 33.14 35.57 28.07 28.23 28.21C18.6 28.35 9.71 33.81 4.75 42.44C-5.26 59.8 2.19 85.53 11.94 99.62C16.71 106.51 22.4 114.28 29.86 113.99C37.05 113.71 39.77 109.35 48.46 109.35C57.15 109.35 59.59 113.99 67.19 113.85C74.92 113.71 79.83 106.82 84.56 99.91C90.04 91.91 92.29 84.17 92.42 83.76C92.26 83.69 77.35 77.98 77.19 60.8C77.06 46.44 88.92 39.53 89.45 39.2Z" />
	</g>
</svg>
